X:1
T:The Comforter Has Come
T:The Comforter Has Come
T:William James Kirkpatrick
T:Frank Bottome, 1890
T:Public Domain Courtesy of the Cyber Hymnal™
T:Public Domain Courtesy of the Cyber Hymnal™
C:William James Kirkpatrick
Z:Public Domain
Z:Courtesy of the Cyber Hymnal™
%%score ( 1 2 ) 3
L:1/8
Q:1/4=102
M:3/4
K:C
V:1 treble 
V:2 treble 
V:3 bass 
V:1
 [DF]2 | [DF]3 [_EG] [DF][_B,D] | [DF]4 [D_B]2 | [_E_B]3 [Ec] [EB][EG] | [_E_B]4 [EG]2 | %5
w: 1.~O|spread the tid- ings|’round, wher-|ev- er man is|found, Wher-|
w: 2.~The|long, long night is|past, the|morn- ing breaks at|last, And|
w: 3.~Lo,|the great King of|kings, with|heal- ing in His|wings, To|
w: 4.~O|bound- less love di-|vine! How|shall this tongue of|mine To|
 [DF]3 [_EG] [DF][_B,D] | [DF]4 [_B,D]2 | [_B,D]3 [B,D] [B,C]B, | [A,C]4 [_EF]2 | %9
w: ev- er hu- man|hearts and|hu- man woes a-|bound; Let|
w: hushed the dread- ful|wail and|fur- y of the|blast, As|
w: ev- ery cap- tive|soul a|full de- live- rance|brings; And|
w: won- dering mor- tals|tell the|match- less grace di-|vine— That|
 [DF]3 [_EG] [DF][_B,D] [DF]4 [F_B]2 | [_E_B]3 [Ec] [EB][EG] | [_E_B]4 [EG]2 | [DF]4 [D_B]2 | %13
w: ev- ery Christ- ian tongue pro-|claim the joy- ful|sound: The|Com- for-|
w: o’er the gold- en hills the|day ad- vanc- es|fast! The|Com- for-|
w: through the va- cant cells the|song of tri- umph|rings; The|Com- for-|
w: I, a child of hell, should|in His im- age|shine! The|Com- for-|
 [Fd]4 [_Ec]2 | [D_B]6 ||"^Refrain" [D_B]2 | [Fd]3 [_Ec] [D_B][Ec] | [Fd]4 [D_B]2 | %18
w: ter has|come!||||
w: ter has|come!||||
w: ter has|come!||||
w: ter has|come!||||
 [_E_B]3 [Ec] [EB][EG] | [_E_B]4 [EG]2 | [DF]3 [_EG] [DF][_B,D] | [DF]4 [_B,D]2 | %22
w: ||||
w: ||||
w: ||||
w: ||||
 [_B,D]3 [B,D] [B,C]B, | [A,C]4 [_EF]2 | [DF]3 [_EG] [DF][_B,D] [DF]4 [F_B]2 | %25
w: |||
w: |||
w: |||
w: |||
 [_E_B]3 [Ec] [EB][EG] | [_E_B]4 [EG]2 | [DF]4 [D_B]2 | [Fd]4 [_Ec]2 | [D_B]6 |] %30
w: |||||
w: |||||
w: |||||
w: |||||
V:2
 x2 | x6 | x6 | x6 | x6 | x6 | x6 | x5 _B, | x6 | x12 | x6 | x6 | x6 | x6 | x6 || x2 | x6 | x6 | %18
 x6 | x6 | x6 | x6 | x5 _B, | x6 | x12 | x6 | x6 | x6 | x6 | x6 |] %30
V:3
 [_B,,_B,]2 | [_B,,_B,]3 [B,,B,] [B,,B,][B,,F,] | [_B,,_B,]4 [B,,F,]2 | %3
w: ~|~ ~ ~ ~|~ ~|
 [_E,G,]3 [E,G,] [E,G,][E,_B,] | [_E,G,]4 [E,_B,]2 | [_B,,_B,]3 [B,,B,] [B,,B,][B,,F,] | %6
w: ~ ~ ~ ~|~ ~|~ ~ ~ ~|
 [_B,,_B,]4 [B,,F,]2 | [G,,G,]3 [G,,G,] [C,E,][C,E,] | [F,,F,]4 [F,,A,]2 | %9
w: ~ ~|~ ~ ~ ~|~ ~|
 [_B,,_B,]3 [B,,B,] [B,,B,][B,,F,] [B,,B,]4 [D,_A,]2 | [_E,G,]3 [E,G,] [E,G,][E,_B,] | %11
w: ~ ~ ~ ~ ~ ~|~ ~ ~ ~|
 [_E,G,]4 [E,_B,]2 | [F,_B,]4 [F,B,]2 | [F,_B,]4 [F,A,]2 | [_B,,F,_B,]6 || [_B,,F,]2 | %16
w: ~ ~|~ ~|~ ~|~|The|
 [_B,,_B,]3 [B,,F,] [B,,F,][B,,F,] | [_B,,_B,]4 [B,,F,]2 | [_E,G,]3 [E,G,] [E,G,][E,_B,] | %19
w: Com- for- ter has|come, the|Com- for- ter has|
 [_E,G,]4 [E,_B,]2 | [_B,,_B,]3 [B,,B,] [B,,B,][B,,F,] | [_B,,_B,]4 [B,,F,]2 | %22
w: come! The|Ho- ly Ghost from|Heav’n, the|
 [G,,G,]3 [G,,G,] [C,E,][C,E,] | [F,,F,]4 [F,,A,]2 | %24
w: Fa- ther’s prom- ise|giv’n; O|
 [_B,,_B,]3 [B,,B,] [B,,B,][B,,F,] [B,,B,]4 [D,_A,]2 | [_E,G,]3 [E,G,] [E,G,][E,_B,] | %26
w: spread the tid- ings ’round, wher-|ev- er man is|
 [_E,G,]4 [E,_B,]2 | [F,_B,]4 [F,B,]2 | [F,_B,]4 [F,A,]2 | [_B,,F,_B,]6 |] %30
w: found— The|Com- for-|ter has|come!|

